**harmony	**harte	**kern	**silbe	**rhyme	**timestamp	**phrase
*M4/4	*M4/4	*ICvox	*	*	*	*
*	*	*VRlead	*	*	*	*
*	*	*Hstimme	*	*	*	*
*b:	*b:	*b:	*	*	*b:	*b:
*	*	*M4/4	*	*	*	*
*	*	*clefF4	*	*	*	*
1r;	1r	r;	.	.	0	.
1r;	1r	r;	.	.	0.464	.
=1	=1	=1	=1	=1	=1	=1
*>Letter>A2	*>Letter>A2	*>Letter>A2	*>Letter>A2	*>Letter>A2	*>Letter>A2	*>Letter>A2
*>Label>Solo	*>Label>Solo	*>Label>Solo	*>Label>Solo	*>Label>Solo	*>Label>Solo	*>Label>Solo
1Bm	B:min	1r	.	.	18.663	newline
=2	=2	=2	=2	=2	=2	=2
1GMM	G:maj7	1r	.	.	21.027	.
=3	=3	=3	=3	=3	=3	=3
1Bm	B:min	1r	.	.	23.391	.
=4	=4	=4	=4	=4	=4	=4
1GMM	G:maj7	1r	.	.	25.755	.
=5	=5	=5	=5	=5	=5	=5
1Bm	B:min	1r	.	.	28.119	newline
=6	=6	=6	=6	=6	=6	=6
1DM	D:maj/5	1r	.	.	30.541	.
=7	=7	=7	=7	=7	=7	=7
1GMM	G:maj7	1r	.	.	32.962	.
=8	=8	=8	=8	=8	=8	=8
*M2/4	*M2/4	*M2/4	*	*	*M2/4	*M2/4
4Em	E:5	2r	.	.	35.384	.
4F#m	F#:sus4	.	.	.	35.989	.
=9	=9	=9	=9	=9	=9	=9
*>Letter>A2	*>Letter>A2	*>Letter>A2	*>Letter>A2	*>Letter>A2	*>Letter>A2	*>Letter>A2
*>Label>Solo	*>Label>Solo	*>Label>Solo	*>Label>Solo	*>Label>Solo	*>Label>Solo	*>Label>Solo
*M4/4	*M4/4	*	*	*	*M4/4	*M4/4
1Bm	B:min	1r	.	.	36.595	newline
=10	=10	=10	=10	=10	=10	=10
1GMM	G:maj7	1r	.	.	39.007	.
=11	=11	=11	=11	=11	=11	=11
1Bm	B:min	1r	.	.	41.419	.
=12	=12	=12	=12	=12	=12	=12
1GMM	G:maj7	1r	.	.	43.832	.
=13	=13	=13	=13	=13	=13	=13
1Bm	B:min	1r	.	.	46.244	newline
=14	=14	=14	=14	=14	=14	=14
1DM	D:maj/5	1r	.	.	48.662	.
=15	=15	=15	=15	=15	=15	=15
1GMM	G:maj7	1r	.	.	51.08	.
=16	=16	=16	=16	=16	=16	=16
*M2/4	*M2/4	*M2/4	*	*	*M2/4	*M2/4
4Em	E:5	2r	.	.	53.497	.
4F#m	F#:sus4	.	.	.	54.102	.
=17	=17	=17	=17	=17	=17	=17
*>Letter>A2	*>Letter>A2	*>Letter>A2	*>Letter>A2	*>Letter>A2	*>Letter>A2	*>Letter>A2
*>Label>Solo	*>Label>Solo	*>Label>Solo	*>Label>Solo	*>Label>Solo	*>Label>Solo	*>Label>Solo
*M4/4	*M4/4	*	*	*	*M4/4	*M4/4
1Bm	B:min	1r	.	.	54.706	newline
=18	=18	=18	=18	=18	=18	=18
1GMM	G:maj7	1r	.	.	57.106	.
=19	=19	=19	=19	=19	=19	=19
1Bm	B:min	1r	.	.	59.505	.
=20	=20	=20	=20	=20	=20	=20
1GMM	G:maj7	1r	.	.	61.904	.
=21	=21	=21	=21	=21	=21	=21
1Bm	B:min	1r	.	.	64.303	newline
=22	=22	=22	=22	=22	=22	=22
1DM	D:maj/5	1r	.	.	66.684	.
=23	=23	=23	=23	=23	=23	=23
1GMM	G:maj7	1r	.	.	69.065	.
=24	=24	=24	=24	=24	=24	=24
4Em	E:5	1r	.	.	71.445	.
4F#m	F#:sus4	.	.	.	72.04	.
2Em	E:5	.	.	.	72.636	.
=25	=25	=25	=25	=25	=25	=25
*>Letter>A	*>Letter>A	*>Letter>A	*>Letter>A	*>Letter>A	*>Letter>A	*>Letter>A
*>Label>Solo	*>Label>Solo	*>Label>Solo	*>Label>Solo	*>Label>Solo	*>Label>Solo	*>Label>Solo
*M3/4	*M3/4	*	*	*	*M3/4	*M3/4
2.Bm	B:min	2.r	.	.	73.826	newline
=26	=26	=26	=26	=26	=26	=26
2.GMM	G:maj7	2.r	.	.	75.619	.
=27	=27	=27	=27	=27	=27	=27
2.Bm	B:min	2.r	.	.	77.413	.
=28	=28	=28	=28	=28	=28	=28
2.GMM	G:maj7	2.r	.	.	79.206	.
=29	=29	=29	=29	=29	=29	=29
2.Bm	B:min	2.r	.	.	81	newline
=30	=30	=30	=30	=30	=30	=30
2.DM	D:maj/5	2.r	.	.	82.786	.
=31	=31	=31	=31	=31	=31	=31
2.GMM	G:maj7	2.r	.	.	84.572	.
=32	=32	=32	=32	=32	=32	=32
2Em	E:sus2	2.r	.	.	86.358	.
4F#m	F#:5	.	.	.	87.549	.
=33	=33	=33	=33	=33	=33	=33
4.GM	G:maj	2.r	.	.	88.145	.
4.AM	A:maj	.	.	.	89.335	.
=34	=34	=34	=34	=34	=34	=34
*>Letter>B	*>Letter>B	*>Letter>B	*>Letter>B	*>Letter>B	*>Letter>B	*>Letter>B
*>Label>Preverse	*>Label>Preverse	*>Label>Preverse	*>Label>Preverse	*>Label>Preverse	*>Label>Preverse	*>Label>Preverse
2.DM	D:maj	2.r	.	.	89.931	newline
=35	=35	=35	=35	=35	=35	=35
2.GM	G:maj	2.r	.	.	91.701	.
=36	=36	=36	=36	=36	=36	=36
2.FM	F:maj(9)	2.r	.	.	93.471	.
=37	=37	=37	=37	=37	=37	=37
2.Em	E:min	2.r	.	.	95.241	.
=38	=38	=38	=38	=38	=38	=38
2.DM	D:maj	2.r	.	.	97.011	newline
=39	=39	=39	=39	=39	=39	=39
2.GM	G:maj	2.r	.	.	98.771	.
=40	=40	=40	=40	=40	=40	=40
2.FM	F:maj(9)	2.r	.	.	100.531	.
=41	=41	=41	=41	=41	=41	=41
2Em	E:min	2.r	.	.	102.291	.
4CM	C:1	.	.	.	103.464	.
=42	=42	=42	=42	=42	=42	=42
*>Letter>A	*>Letter>A	*>Letter>A	*>Letter>A	*>Letter>A	*>Letter>A	*>Letter>A
*>Label>Verse	*>Label>Verse	*>Label>Verse	*>Label>Verse	*>Label>Verse	*>Label>Verse	*>Label>Verse
2.Bm	B:min	4r	.	.	104.051	newline
.	.	8F#	I	.	.	.
.	.	16F#	can't	.	.	.
.	.	16F#	re-	.	.	.
.	.	8F#	-mem-	.	.	.
.	.	8F#	-ber	.	.	.
=43	=43	=43	=43	=43	=43	=43
2.GMM	G:maj7	4G	an-	.	105.853	.
.	.	8F#	-y-	.	.	.
.	.	4.F#	-thing	A	.	.
=44	=44	=44	=44	=44	=44	=44
2.Bm	B:min	4r	.	.	107.655	.
.	.	8F#	can't	.	.	.
.	.	16F#	tell	.	.	.
.	.	16F#	if	.	.	.
.	.	8F#	this	.	.	.
.	.	8F#	is	.	.	.
=45	=45	=45	=45	=45	=45	=45
2GMM	G:maj7	4G	true	.	109.458	.
.	.	8F#	or	.	.	.
.	.	8D	_	.	.	.
4AM	A:sus4	4D	dream	A	110.659	.
=46	=46	=46	=46	=46	=46	=46
2.Bm	B:min	4r	.	.	111.26	newline
.	.	8F#	Deep	.	.	.
.	.	16F#	down	.	.	.
.	.	16F#	in-	.	.	.
.	.	8F#	-side	.	.	.
.	.	8D	I	.	.	.
=47	=47	=47	=47	=47	=47	=47
2.DM	D:maj/5	4E	feel	.	113.036	.
.	.	8F#	to	.	.	.
.	.	8G	scream	A	.	.
.	.	4F#	_	.	.	.
=48	=48	=48	=48	=48	=48	=48
2.GMM	G:maj7	8r	.	.	114.812	.
.	.	8A	This	.	.	.
.	.	8B	ter-	.	.	.
.	.	16B	-ri-	.	.	.
.	.	16B	-ble	.	.	.
.	.	8B	si-	.	.	.
.	.	8A	-lence	.	.	.
=49	=49	=49	=49	=49	=49	=49
*M2/4	*M2/4	*M2/4	*	*	*M2/4	*M2/4
4Em	E:sus2	8G	stops	.	116.588	.
.	.	8F#	with	.	.	.
4F#m	F#:5	4F#	me	A	117.18	.
=50	=50	=50	=50	=50	=50	=50
*M3/4	*M3/4	*M3/4	*	*	*M3/4	*M3/4
2.Bm	B:min	4r	.	.	117.772	newline
.	.	8F#	Now	.	.	.
.	.	16F#	that	.	.	.
.	.	16F#	the	.	.	.
.	.	8F#	war	.	.	.
.	.	8F#	is	.	.	.
=51	=51	=51	=51	=51	=51	=51
2.GMM	G:maj7	4G	through	.	119.561	.
.	.	8F#	with	.	.	.
.	.	4.F#	me	A	.	.
=52	=52	=52	=52	=52	=52	=52
2.Bm	B:min	4r	.	.	121.35	.
.	.	8F#	I'm	.	.	.
.	.	16F#	wal-	.	.	.
.	.	16F#	-king	a	.	.
.	.	8F#	up	.	.	.
.	.	8F#	I	.	.	.
=53	=53	=53	=53	=53	=53	=53
2GMM	G:maj7	4G	can	.	123.139	.
.	.	8F#	not	.	.	.
.	.	8D	_	.	.	.
4AM	A:sus4	4D	see	A	124.332	.
=54	=54	=54	=54	=54	=54	=54
2.Bm	B:min	4r	.	.	124.928	newline
.	.	8F#	that	.	.	.
.	.	8F#	there's	.	.	.
.	.	8F#	not	.	.	.
.	.	8D	much	.	.	.
=55	=55	=55	=55	=55	=55	=55
2.DM	D:maj/5	4E	left	.	126.71	.
.	.	8F#	of	.	.	.
.	.	8G	me	A	.	.
.	.	4F#	_	.	.	.
=56	=56	=56	=56	=56	=56	=56
2.GMM	G:maj7	4r	.	.	128.492	.
.	.	8B	Noth-	.	.	.
.	.	16B	-ing	.	.	.
.	.	16B	is	.	.	.
.	.	8B	real	.	.	.
.	.	8A	but	.	.	.
=57	=57	=57	=57	=57	=57	=57
*M2/4	*M2/4	*M2/4	*	*	*M2/4	*M2/4
4Em	E:sus2	8G	pain	.	130.273	.
.	.	8F#	_	.	.	.
4F#m	F#:5	4F#	now	.	130.867	.
=58	=58	=58	=58	=58	=58	=58
*>Letter>C	*>Letter>C	*>Letter>C	*>Letter>C	*>Letter>C	*>Letter>C	*>Letter>C
*>Label>Prechorus	*>Label>Prechorus	*>Label>Prechorus	*>Label>Prechorus	*>Label>Prechorus	*>Label>Prechorus	*>Label>Prechorus
*M4/4	*M4/4	*	*	*	*M4/4	*M4/4
1GM	G:maj	4.G	Hold	.	131.461	newline
.	.	8A	me	.	.	.
.	.	8B	breath	B	.	.
.	.	8A	as	.	.	.
.	.	4G	I	.	.	.
=59	=59	=59	=59	=59	=59	=59
*M2/4	*M2/4	*M2/4	*	*	*M2/4	*M2/4
4F#Mm	F#:7	4F#	wish	.	133.785	.
4Bm	B:min	8G	for	.	134.365	.
.	.	8A	death	B	.	.
=60	=60	=60	=60	=60	=60	=60
*M4/4	*M4/4	*M4/4	*	*	*M4/4	*M4/4
1AM	A:maj	2A	_	.	134.946	.
.	.	8r	.	.	.	.
.	.	8A	Oh	.	.	.
.	.	4d	please	A	.	.
=61	=61	=61	=61	=61	=61	=61
*M2/4	*M2/4	*M2/4	*	*	*M2/4	*M2/4
4CM	C:1	4c#	God	.	137.27	.
4C#m	C#:1	4d	wake	.	137.851	.
=62	=62	=62	=62	=62	=62	=62
*>Letter>B	*>Letter>B	*>Letter>B	*>Letter>B	*>Letter>B	*>Letter>B	*>Letter>B
*>Label>Preverse	*>Label>Preverse	*>Label>Preverse	*>Label>Preverse	*>Label>Preverse	*>Label>Preverse	*>Label>Preverse
*M3/4	*M3/4	*	*	*	*M3/4	*M3/4
2.DM	D:maj	8d	me	A	138.431	newline
.	.	[8d	_	.	.	.
.	.	2d_	_	.	.	.
=63	=63	=63	=63	=63	=63	=63
2.GM	G:maj	2.d_	_	.	140.199	.
=64	=64	=64	=64	=64	=64	=64
2.FM	F:maj(9)	2.d_	_	.	141.966	.
=65	=65	=65	=65	=65	=65	=65
2.Em	E:min	2d]	_	.	143.734	.
.	.	4r	.	.	.	.
=66	=66	=66	=66	=66	=66	=66
2.DM	D:maj	2.r	.	.	145.501	newline
=67	=67	=67	=67	=67	=67	=67
2.GM	G:maj	2.r	.	.	147.276	.
=68	=68	=68	=68	=68	=68	=68
2.FM	F:maj(9)	2.r	.	.	149.051	.
=69	=69	=69	=69	=69	=69	=69
2Em	E:min	2.r	.	.	150.826	.
4CM	C:1	.	.	.	152.01	.
=70	=70	=70	=70	=70	=70	=70
*>Letter>A	*>Letter>A	*>Letter>A	*>Letter>A	*>Letter>A	*>Letter>A	*>Letter>A
*>Label>Verse	*>Label>Verse	*>Label>Verse	*>Label>Verse	*>Label>Verse	*>Label>Verse	*>Label>Verse
2.Bm	B:min	4r	.	.	152.602	newline
.	.	8F#	Back	.	.	.
.	.	16F#	in	.	.	.
.	.	16F#	the	.	.	.
.	.	8F#	womb	.	.	.
.	.	8F#	it's	.	.	.
=71	=71	=71	=71	=71	=71	=71
2.GMM	G:maj7	4G	much	.	154.391	.
.	.	8F#	to	.	.	.
.	.	4.F#	real	A	.	.
=72	=72	=72	=72	=72	=72	=72
2.Bm	B:min	4r	.	.	156.18	.
.	.	8F#	In	.	.	.
.	.	8F#	pumps	.	.	.
.	.	8F#	life	.	.	.
.	.	8F#	that	.	.	.
=73	=73	=73	=73	=73	=73	=73
2GMM	G:maj7	4G	I	.	157.969	.
.	.	8F#	must	.	.	.
.	.	8D	_	.	.	.
4AM	A:sus4	4D	feel	.	159.162	.
=74	=74	=74	=74	=74	=74	=74
2.Bm	B:min	8r	.	.	159.758	newline
.	.	8F#	but	.	.	.
.	.	8F#	can't	.	.	.
.	.	8F#	look	.	.	.
.	.	8F#	for-	.	.	.
.	.	8D	-ward	.	.	.
=75	=75	=75	=75	=75	=75	=75
2.DM	D:maj/5	4E	to	.	161.552	.
.	.	8F#	re-	.	.	.
.	.	16F#	-veal	A	.	.
.	.	16G	_	.	.	.
.	.	4F#	_	.	.	.
=76	=76	=76	=76	=76	=76	=76
2.GMM	G:maj7	4r	.	.	163.346	.
.	.	8B	Look	.	.	.
.	.	16B	to	.	.	.
.	.	16B	the	.	.	.
.	.	8B	time	.	.	.
.	.	8A	when	.	.	.
=77	=77	=77	=77	=77	=77	=77
*M2/4	*M2/4	*M2/4	*	*	*M2/4	*M2/4
4Em	E:sus2	8G	I'll	.	165.14	.
.	.	8F#	_	.	.	.
4F#m	F#:5	4F#	live	.	165.738	.
=78	=78	=78	=78	=78	=78	=78
*M3/4	*M3/4	*M3/4	*	*	*M3/4	*M3/4
2.Bm	B:min	4r	.	.	166.336	newline
.	.	8F#	Fed	.	.	.
.	.	16F#	through	.	.	.
.	.	16F#	the	.	.	.
.	.	8F#	tube	.	.	.
.	.	8F#	that	.	.	.
=79	=79	=79	=79	=79	=79	=79
2.GMM	G:maj7	4G	sticks	.	168.116	.
.	.	8F#	in	.	.	.
.	.	4.F#	me	A	.	.
=80	=80	=80	=80	=80	=80	=80
2.Bm	B:min	4r	.	.	169.897	.
.	.	8F#	just	.	.	.
.	.	16F#	like	.	.	.
.	.	16F#	a	.	.	.
.	.	8F#	war-	.	.	.
.	.	8F#	-time	.	.	.
=81	=81	=81	=81	=81	=81	=81
2GMM	G:maj7	4G	nov-	.	171.677	.
.	.	8F#	-el-	.	.	.
.	.	8D	_	.	.	.
4AM	A:sus4	4D	-ty	A	172.864	.
=82	=82	=82	=82	=82	=82	=82
2.Bm	B:min	4r	.	.	173.458	newline
.	.	8F#	tied	.	.	.
.	.	16F#	to	.	.	.
.	.	16F#	ma-	.	.	.
.	.	8F#	-chines	.	.	.
.	.	8D	that	.	.	.
=83	=83	=83	=83	=83	=83	=83
2.DM	D:maj/5	4E	make	.	175.254	.
.	.	8F#	me	.	.	.
.	.	16F#	be	A	.	.
.	.	16G	_	.	.	.
.	.	4F#	_	.	.	.
=84	=84	=84	=84	=84	=84	=84
2.GMM	G:maj7	4r	.	.	177.051	.
.	.	8B	Cut	.	.	.
.	.	8B	this	.	.	.
.	.	8B	life	.	.	.
.	.	8A	off	.	.	.
=85	=85	=85	=85	=85	=85	=85
*M2/4	*M2/4	*M2/4	*	*	*M2/4	*M2/4
4Em	E:sus2	8G	from	.	178.848	.
.	.	8F#	_	.	.	.
4F#m	F#:5	4F#	me	A	179.447	.
=86	=86	=86	=86	=86	=86	=86
*>Letter>C	*>Letter>C	*>Letter>C	*>Letter>C	*>Letter>C	*>Letter>C	*>Letter>C
*>Label>Prechorus	*>Label>Prechorus	*>Label>Prechorus	*>Label>Prechorus	*>Label>Prechorus	*>Label>Prechorus	*>Label>Prechorus
*M4/4	*M4/4	*	*	*	*M4/4	*M4/4
1GM	G:maj	4.G	Hold	.	180.046	newline
.	.	8A	my	.	.	.
.	.	8B	breath	B	.	.
.	.	8A	as	.	.	.
.	.	4G	I	.	.	.
=87	=87	=87	=87	=87	=87	=87
*M2/4	*M2/4	*M2/4	*	*	*M2/4	*M2/4
4F#Mm	F#:7	4F#	wish	.	182.368	.
4Bm	B:min	8G	for	.	182.949	.
.	.	8A	death	B	.	.
=88	=88	=88	=88	=88	=88	=88
*M4/4	*M4/4	*M4/4	*	*	*M4/4	*M4/4
1AM	A:maj	2A	_	.	183.529	.
.	.	8r	.	.	.	.
.	.	8A	Oh	.	.	.
.	.	4d	please	.	.	.
=89	=89	=89	=89	=89	=89	=89
*M2/4	*M2/4	*M2/4	*	*	*M2/4	*M2/4
4CM	C:1	4c#	God	.	185.852	.
4C#m	C#:1	4d	wake	.	186.432	.
=90	=90	=90	=90	=90	=90	=90
*>Letter>B	*>Letter>B	*>Letter>B	*>Letter>B	*>Letter>B	*>Letter>B	*>Letter>B
*>Label>Preverse	*>Label>Preverse	*>Label>Preverse	*>Label>Preverse	*>Label>Preverse	*>Label>Preverse	*>Label>Preverse
*M3/4	*M3/4	*	*	*	*M3/4	*M3/4
2.DM	D:maj	8d	me	A	187.013	newline
.	.	[8d	_	.	.	.
.	.	2d_	_	.	.	.
=91	=91	=91	=91	=91	=91	=91
2.GM	G:maj	2.d_	_	.	188.783	.
=92	=92	=92	=92	=92	=92	=92
2.FM	F:maj(9)	2.d_	_	.	190.554	.
=93	=93	=93	=93	=93	=93	=93
2.Em	E:min	2d]	_	.	192.325	.
.	.	4r	.	.	.	.
=94	=94	=94	=94	=94	=94	=94
2.DM	D:maj	2.r	.	.	194.096	newline
=95	=95	=95	=95	=95	=95	=95
2.GM	G:maj	2.r	.	.	195.87	.
=96	=96	=96	=96	=96	=96	=96
2.FM	F:maj(9)	2.r	.	.	197.643	.
=97	=97	=97	=97	=97	=97	=97
2.Em	E:min	2.r	.	.	199.417	.
=98	=98	=98	=98	=98	=98	=98
2.DM	D:maj	2.r	.	.	201.191	newline
=99	=99	=99	=99	=99	=99	=99
2.GM	G:maj	2.r	.	.	202.978	.
=100	=100	=100	=100	=100	=100	=100
2.FM	F:maj(9)	2.r	.	.	204.765	.
=101	=101	=101	=101	=101	=101	=101
2.Em	E:min	2.r	.	.	206.552	.
=102	=102	=102	=102	=102	=102	=102
2.DM	D:maj	2.r	.	.	208.338	newline
=103	=103	=103	=103	=103	=103	=103
2.GM	G:maj	2.r	.	.	210.073	.
=104	=104	=104	=104	=104	=104	=104
2.FM	F:maj(9)	2.r	.	.	211.808	.
=105	=105	=105	=105	=105	=105	=105
2.Em	E:min	2.r	.	.	213.542	.
=106	=106	=106	=106	=106	=106	=106
*>Letter>C	*>Letter>C	*>Letter>C	*>Letter>C	*>Letter>C	*>Letter>C	*>Letter>C
*>Label>Prechorus	*>Label>Prechorus	*>Label>Prechorus	*>Label>Prechorus	*>Label>Prechorus	*>Label>Prechorus	*>Label>Prechorus
*M4/4	*M4/4	*	*	*	*M4/4	*M4/4
1GM	G:maj	4.G	Now	.	215.277	newline
.	.	8A	the	.	.	.
.	.	8B	world	.	.	.
.	.	8A	is	.	.	.
.	.	4G	gone	C	.	.
=107	=107	=107	=107	=107	=107	=107
*M2/4	*M2/4	*M2/4	*	*	*M2/4	*M2/4
4F#Mm	F#:7	4F#	I'm	.	217.566	.
4Bm	B:min	8G	just	.	218.139	.
.	.	8A	one	C	.	.
=108	=108	=108	=108	=108	=108	=108
*M4/4	*M4/4	*M4/4	*	*	*M4/4	*M4/4
1AM	A:maj	2A	_	.	218.711	.
.	.	8r	.	.	.	.
.	.	8A	Oh	.	.	.
.	.	4d	God	.	.	.
=109	=109	=109	=109	=109	=109	=109
*M2/4	*M2/4	*M2/4	*	*	*M2/4	*M2/4
4Bm	B:1	4c#	help	.	221.001	.
4C#m	C#:1	4d	me	A	221.573	.
=110	=110	=110	=110	=110	=110	=110
*M4/4	*M4/4	*M4/4	*	*	*M4/4	*M4/4
1GM	G:maj	4.G	Hold	.	222.145	newline
.	.	8A	my	.	.	.
.	.	8B	breath	B	.	.
.	.	8A	as	.	.	.
.	.	4G	I	.	.	.
=111	=111	=111	=111	=111	=111	=111
*M2/4	*M2/4	*M2/4	*	*	*M2/4	*M2/4
4F#Mm	F#:7	4F#	wish	.	224.385	.
4Bm	B:min	8G	for	.	224.944	.
.	.	[8A	death	B	.	.
=112	=112	=112	=112	=112	=112	=112
*M4/4	*M4/4	*M4/4	*	*	*M4/4	*M4/4
1AM	A:maj	2A]	_	.	225.504	.
.	.	8r	.	.	.	.
.	.	8A	Oh	.	.	.
.	.	4d	please	.	.	.
=113	=113	=113	=113	=113	=113	=113
*M2/4	*M2/4	*M2/4	*	*	*M2/4	*M2/4
4Bm	B:1	4c#	God	.	227.743	.
4C#m	C#:1	4d	help	.	228.303	.
=114	=114	=114	=114	=114	=114	=114
*M4/4	*M4/4	*M4/4	*	*	*M4/4	*M4/4
1GM	G:maj	8d	me	A	228.863	newline
.	.	[4.d	_	.	.	.
.	.	2d_	_	.	.	.
=115	=115	=115	=115	=115	=115	=115
*M2/4	*M2/4	*M2/4	*	*	*M2/4	*M2/4
4F#Mm	F#:7	2d]	_	.	231.136	.
4Bm	B:min	.	.	.	231.704	.
=116	=116	=116	=116	=116	=116	=116
*>Letter>D	*>Letter>D	*>Letter>D	*>Letter>D	*>Letter>D	*>Letter>D	*>Letter>D
*>Label>Solo	*>Label>Solo	*>Label>Solo	*>Label>Solo	*>Label>Solo	*>Label>Solo	*>Label>Solo
*M3/4	*M3/4	*M3/4	*	*	*M3/4	*M3/4
2.Am	A:min	2.r	.	.	232.272	newline
=117	=117	=117	=117	=117	=117	=117
2.GM	G:maj	2.r	.	.	233.928	.
=118	=118	=118	=118	=118	=118	=118
2.BM	B:maj	2.r	.	.	235.584	.
=119	=119	=119	=119	=119	=119	=119
2.CM	C:5	2.r	.	.	237.24	.
=120	=120	=120	=120	=120	=120	=120
2.Am	A:min	2.r	.	.	238.896	newline
=121	=121	=121	=121	=121	=121	=121
2.GM	G:maj	2.r	.	.	240.537	.
=122	=122	=122	=122	=122	=122	=122
2.BM	B:maj	2.r	.	.	242.178	.
=123	=123	=123	=123	=123	=123	=123
2.CM	C:5	2.r	.	.	243.819	.
=124	=124	=124	=124	=124	=124	=124
2.Am	A:min	2.r	.	.	245.46	newline
=125	=125	=125	=125	=125	=125	=125
2.GM	G:maj	2.r	.	.	247.107	.
=126	=126	=126	=126	=126	=126	=126
2.BM	B:maj	2.r	.	.	248.754	.
=127	=127	=127	=127	=127	=127	=127
2.CM	C:5	2.r	.	.	250.401	.
=128	=128	=128	=128	=128	=128	=128
2.Am	A:min	2.r	.	.	252.048	newline
=129	=129	=129	=129	=129	=129	=129
2.GM	G:maj	2.r	.	.	253.701	.
=130	=130	=130	=130	=130	=130	=130
2.BM	B:maj	2.r	.	.	255.353	.
=131	=131	=131	=131	=131	=131	=131
2.CM	C:5	2.r	.	.	257.006	.
=132	=132	=132	=132	=132	=132	=132
2.Am	A:min	2.r	.	.	258.658	newline
=133	=133	=133	=133	=133	=133	=133
2.GM	G:maj	2.r	.	.	260.282	.
=134	=134	=134	=134	=134	=134	=134
2.BM	B:maj	2.r	.	.	261.907	.
=135	=135	=135	=135	=135	=135	=135
2.CM	C:5	2.r	.	.	263.531	.
=136	=136	=136	=136	=136	=136	=136
2.Am	A:min	2.r	.	.	265.155	newline
=137	=137	=137	=137	=137	=137	=137
2.GM	G:maj	2.r	.	.	266.772	.
=138	=138	=138	=138	=138	=138	=138
2.BM	B:maj	2.r	.	.	268.39	.
=139	=139	=139	=139	=139	=139	=139
2.CM	C:5	2.r	.	.	270.007	.
=140	=140	=140	=140	=140	=140	=140
*M4/4	*M4/4	*M4/4	*	*	*M4/4	*M4/4
1CM	C:maj	1r	.	.	271.625	newline
=141	=141	=141	=141	=141	=141	=141
1CM	C:maj	1r	.	.	273.774	.
=142	=142	=142	=142	=142	=142	=142
*>Letter>E	*>Letter>E	*>Letter>E	*>Letter>E	*>Letter>E	*>Letter>E	*>Letter>E
*>Label>Interlude	*>Label>Interlude	*>Label>Interlude	*>Label>Interlude	*>Label>Interlude	*>Label>Interlude	*>Label>Interlude
*E:	*E:	*E:	*	*	*E:	*E:
1Em	E:5(b7)	1r	.	.	275.924	newline
=143	=143	=143	=143	=143	=143	=143
1Em	E:5(b7)	1r	.	.	278.097	.
=144	=144	=144	=144	=144	=144	=144
1Em	E:5(b7)	1r	.	.	280.27	.
=145	=145	=145	=145	=145	=145	=145
2.Em	E:5(b7)	1r	.	.	282.443	.
4FM	F:5	.	.	.	284.072	.
=146	=146	=146	=146	=146	=146	=146
2.Em	E:5(b7)	1r	.	.	284.616	newline
4FM	F:5	.	.	.	286.23	.
=147	=147	=147	=147	=147	=147	=147
2.Em	E:5(b7)	1r	.	.	286.768	.
4FM	F:5	.	.	.	288.381	.
=148	=148	=148	=148	=148	=148	=148
2.Em	E:5(b7)	1r	.	.	288.919	.
4FM	F:maj	.	.	.	290.533	.
=149	=149	=149	=149	=149	=149	=149
2.Em	E:5(b7)	1r	.	.	291.071	.
4FM	F:5	.	.	.	292.685	.
=150	=150	=150	=150	=150	=150	=150
1EM	E:maj	8e	Dark-	.	293.223	newline
.	.	8e	-ness	.	.	.
.	.	8r	.	.	.	.
.	.	8e	im-	.	.	.
.	.	16e	-pris-	.	.	.
.	.	16e	-on-	.	.	.
.	.	8e	-ing	.	.	.
.	.	8e	me	A	.	.
.	.	8r	.	.	.	.
=151	=151	=151	=151	=151	=151	=151
2.EM	E:maj	16e	all	.	295.389	.
.	.	16e	that	.	.	.
.	.	8e	I	.	.	.
.	.	8e	see	A	.	.
.	.	8r	.	.	.	.
.	.	16e	ab-	.	.	.
.	.	16e	-so-	.	.	.
.	.	8e	-lute	.	.	.
4FM	F:maj	8e	hor-	.	297.013	.
.	.	8e	-ror	.	.	.
=152	=152	=152	=152	=152	=152	=152
1EM	E:maj	16e	I	.	297.554	.
.	.	16e	can-	.	.	.
.	.	8e	-not	.	.	.
.	.	8e	live	.	.	.
.	.	8r	.	.	.	.
.	.	16e	I	.	.	.
.	.	16e	can-	.	.	.
.	.	8e	-not	.	.	.
.	.	8e	die	.	.	.
.	.	8r	.	.	.	.
=153	=153	=153	=153	=153	=153	=153
2.EM	E:maj	16e	Trapped	.	299.72	.
.	.	16e	in	.	.	.
.	.	8e	my-	.	.	.
.	.	8e	-self	D	.	.
.	.	8r	.	.	.	.
.	.	16e	bod-	.	.	.
.	.	16e	-y	.	.	.
.	.	8e	my	.	.	.
4FM	F:maj	8e	hold-	.	301.344	.
.	.	8e	-ing	.	.	.
=154	=154	=154	=154	=154	=154	=154
2.Em	E:5(b7)	8e	cell	D	301.886	newline
.	.	4.e	_	.	.	.
.	.	2r	.	.	.	.
4FM	F:5	.	.	.	303.51	.
=155	=155	=155	=155	=155	=155	=155
4Em	E:5(b7)	1r	.	.	304.052	.
4DM	D:1	.	.	.	304.593	.
4EM	E:1	.	.	.	305.135	.
4FM	F:1	.	.	.	305.676	.
=156	=156	=156	=156	=156	=156	=156
2.Em	E:5(b7)	1r	.	.	306.218	.
4FM	F:5	.	.	.	307.842	.
=157	=157	=157	=157	=157	=157	=157
4Em	E:5(b7)	1r	.	.	308.384	.
4DM	D:1	.	.	.	308.925	.
4Em	E:5	.	.	.	309.467	.
4BM	B:5	.	.	.	310.008	.
=158	=158	=158	=158	=158	=158	=158
1Em	E:5(b7)	8g	Land-	.	310.55	newline
.	.	8e	-mine	.	.	.
.	.	8r	.	.	.	.
.	.	8e	has	.	.	.
.	.	16e	tak-	.	.	.
.	.	16e	-en	.	.	.
.	.	8e	my	.	.	.
.	.	8e	sight	.	.	.
.	.	8r	.	.	.	.
=159	=159	=159	=159	=159	=159	=159
2.Em	E:5(b7)	16e	tak-	.	312.709	.
.	.	16e	-en	.	.	.
.	.	8e	my	.	.	.
.	.	8e	speech	.	.	.
.	.	8r	.	.	.	.
.	.	16e	tak-	.	.	.
.	.	16e	-en	.	.	.
.	.	8e	my	.	.	.
4FM	F:5	8e	hear-	.	314.328	.
.	.	8e	-ing	.	.	.
=160	=160	=160	=160	=160	=160	=160
2.Em	E:5(b7)	16e	tak-	.	314.868	.
.	.	16e	-en	.	.	.
.	.	8e	my	.	.	.
.	.	8e	arms	.	.	.
.	.	8r	.	.	.	.
.	.	16e	tak-	.	.	.
.	.	16e	-en	.	.	.
.	.	8e	my	.	.	.
4FM	F:maj	8e	legs	.	316.487	.
.	.	8r	.	.	.	.
=161	=161	=161	=161	=161	=161	=161
2.Em	E:5(b7)	16e	tak-	.	317.027	.
.	.	16e	-en	.	.	.
.	.	8e	my	.	.	.
.	.	8e	soul	.	.	.
.	.	8r	.	.	.	.
.	.	16e	left	.	.	.
.	.	16e	me	.	.	.
.	.	8e	with	.	.	.
4FM	F:5	8e	life	.	318.647	.
.	.	8e	in	.	.	.
=162	=162	=162	=162	=162	=162	=162
2.Em	E:5(b7)	4g	hell	.	319.187	newline
.	.	2.g	_	.	.	.
4FM	F:5	.	.	.	320.819	.
=163	=163	=163	=163	=163	=163	=163
2.Em	E:5(b7)	1e	_	.	321.363	.
4FM	F:5	.	.	.	322.995	.
=164	=164	=164	=164	=164	=164	=164
2.Em	E:5(b7)	2e	_	.	323.539	.
.	.	2r	.	.	.	.
4FM	F:maj	.	.	.	325.171	.
=165	=165	=165	=165	=165	=165	=165
2.Em	E:5(b7)	1r	.	.	325.715	.
4FM	F:5	.	.	.	327.347	.
=166	=166	=166	=166	=166	=166	=166
1Em	E:5	1r	.	.	327.891	newline
=167	=167	=167	=167	=167	=167	=167
1Em	E:5	1r	.	.	330.073	.
=168	=168	=168	=168	=168	=168	=168
2.Em	E:5(b7)	1r	.	.	332.256	newline
4FM	F:5	.	.	.	333.866	.
=169	=169	=169	=169	=169	=169	=169
2.Em	E:5(b7)	1r	.	.	334.403	.
4FM	F:5	.	.	.	336.014	.
=170	=170	=170	=170	=170	=170	=170
2.Em	E:5(b7)	1r	.	.	336.551	.
4FM	F:maj	.	.	.	338.162	.
=171	=171	=171	=171	=171	=171	=171
2.Em	E:5(b7)	1r	.	.	338.699	.
4FM	F:5	.	.	.	340.31	.
=172	=172	=172	=172	=172	=172	=172
1Em	E:5	1r	.	.	340.847	newline
=173	=173	=173	=173	=173	=173	=173
1Em	E:5	1r	.	.	343.003	.
=174	=174	=174	=174	=174	=174	=174
*>Letter>E	*>Letter>E	*>Letter>E	*>Letter>E	*>Letter>E	*>Letter>E	*>Letter>E
*>Label>Solo	*>Label>Solo	*>Label>Solo	*>Label>Solo	*>Label>Solo	*>Label>Solo	*>Label>Solo
2.Em	E:5(b7)	1r	.	.	345.159	newline
4FM	F:5	.	.	.	346.775	.
=175	=175	=175	=175	=175	=175	=175
2.Em	E:5(b7)	1r	.	.	347.314	.
4FM	F:5	.	.	.	348.929	.
=176	=176	=176	=176	=176	=176	=176
2.Em	E:5(b7)	1r	.	.	349.468	.
4FM	F:maj	.	.	.	351.084	.
=177	=177	=177	=177	=177	=177	=177
2.Em	E:5(b7)	1r	.	.	351.622	.
4FM	F:5	.	.	.	353.238	.
=178	=178	=178	=178	=178	=178	=178
1Em	E:5	1r	.	.	353.776	newline
=179	=179	=179	=179	=179	=179	=179
1Em	E:5(b7)	1r	.	.	355.914	newline
=180	=180	=180	=180	=180	=180	=180
2Em	E:5(b7)	1r	.	.	358.082	.
2Gm	G:5	.	.	.	359.167	.
=181	=181	=181	=181	=181	=181	=181
1Em	E:5(b7)	1r	.	.	360.251	.
=182	=182	=182	=182	=182	=182	=182
2Em	E:5(b7)	1r	.	.	362.42	.
2Gm	G:5	.	.	.	363.504	.
=183	=183	=183	=183	=183	=183	=183
1Gm	G:5	1r	.	.	364.588	newline
=184	=184	=184	=184	=184	=184	=184
4Gm	G:5	1r	.	.	366.73	.
4A-M	A-:5	.	.	.	367.266	.
2FM	F:5	.	.	.	367.801	.
=185	=185	=185	=185	=185	=185	=185
1Gm	G:5	1r	.	.	368.872	.
=186	=186	=186	=186	=186	=186	=186
4Gm	G:5	1r	.	.	371.014	.
4A-M	A-:5	.	.	.	371.549	.
2FM	F:5	.	.	.	372.085	.
=187	=187	=187	=187	=187	=187	=187
1GMm	G:7	1r	.	.	373.156	newline
=188	=188	=188	=188	=188	=188	=188
1FM	F:5	1r	.	.	375.303	.
=189	=189	=189	=189	=189	=189	=189
1GMm	G:7	1r	.	.	377.451	.
=190	=190	=190	=190	=190	=190	=190
1FM	F:maj	1r	.	.	379.599	.
=191	=191	=191	=191	=191	=191	=191
2Gm	G:5	1r	.	.	381.747	.
2DM	D:5	.	.	.	382.821	.
=192	=192	=192	=192	=192	=192	=192
2.Em	E:5(b7)	1r	.	.	383.895	newline
4FM	F:5	.	.	.	385.517	.
=193	=193	=193	=193	=193	=193	=193
2.Em	E:5(b7)	1r	.	.	386.058	.
4FM	F:5	.	.	.	387.68	.
=194	=194	=194	=194	=194	=194	=194
2.Em	E:5(b7)	1r	.	.	388.221	.
4FM	F:5	.	.	.	389.843	.
=195	=195	=195	=195	=195	=195	=195
2.Em	E:5(b7)	1r	.	.	390.384	.
4FM	F:5	.	.	.	392.006	.
=196	=196	=196	=196	=196	=196	=196
1EM	E:maj	1r	.	.	392.547	newline
=197	=197	=197	=197	=197	=197	=197
2.Em	E:5(b7)	1r	.	.	394.701	newline
4FM	F:5	.	.	.	396.307	.
=198	=198	=198	=198	=198	=198	=198
2.Em	E:5(b7)	1r	.	.	396.842	.
4FM	F:5	.	.	.	398.448	.
=199	=199	=199	=199	=199	=199	=199
2.Em	E:5(b7)	1r	.	.	398.983	.
4FM	F:5	.	.	.	400.589	.
=200	=200	=200	=200	=200	=200	=200
2.Em	E:5(b7)	1r	.	.	401.124	.
4FM	F:5	.	.	.	402.73	.
=201	=201	=201	=201	=201	=201	=201
2.Em	E:5(b7)	1r	.	.	403.265	newline
4FM	F:5	.	.	.	404.88	.
=202	=202	=202	=202	=202	=202	=202
2.Em	E:5(b7)	1r	.	.	405.418	.
4FM	F:5	.	.	.	407.032	.
=203	=203	=203	=203	=203	=203	=203
2.Em	E:5(b7)	1r	.	.	407.57	.
4FM	F:5	.	.	.	409.185	.
=204	=204	=204	=204	=204	=204	=204
2.Em	E:5(b7)	1r	.	.	409.723	.
4FM	F:5	.	.	.	411.337	.
=205	=205	=205	=205	=205	=205	=205
2.Em	E:5(b7)	1r	.	.	411.876	newline
4FM	F:5	.	.	.	413.498	.
=206	=206	=206	=206	=206	=206	=206
2.Em	E:5(b7)	1r	.	.	414.038	newline
4FM	F:5	.	.	.	415.645	.
=207	=207	=207	=207	=207	=207	=207
2.Em	E:5(b7)	1r	.	.	416.181	.
4FM	F:5	.	.	.	417.787	.
=208	=208	=208	=208	=208	=208	=208
2.Em	E:5(b7)	1r	.	.	418.323	.
4FM	F:5	.	.	.	419.93	.
=209	=209	=209	=209	=209	=209	=209
2.Em	E:5(b7)	1r	.	.	420.465	.
4FM	F:5	.	.	.	422.072	.
=210	=210	=210	=210	=210	=210	=210
1Gm	G:5	1r	.	.	422.607	newline
=211	=211	=211	=211	=211	=211	=211
2.Em	E:5(b7)	1r	.	.	424.736	.
4FM	F:5	.	.	.	426.332	.
=212	=212	=212	=212	=212	=212	=212
1Gm	G:5	1r	.	.	426.864	.
1r;	1r	r;	.	.	442.921	.
1r;	1r	r;	.	.	444.5	.
*-	*-	*-	*-	*-	*-	*-
!!!BillboardChartDate: 1989/05/20
!!!BillboardPeak: 35
!!!BillboardWeeksOnChart: 15
!!!COC: Metallica
!!!EMD: Harmonic interpretation of riffs near the end is a stretch.
!!!ENC: Nathaniel Condit-Schultz
!!!EST: Awating manual error checking and editing.
!!!OTL: One
!!!RDF**chordsym: original McGill chord annotation + (implied pitch class set, with bass pitch in first position)
!!!RDF**harmony: **recip + pitch class of root + harmonic quality
!!!RDF**leadinstrument: original McGill primary instrumentation annotation
!!!RDF**phrase: newline = linebreak in original McGill transcription
!!!RDF**timestamp: McGill audio timestamp in seconds
!!!RDT: 2017/01/12/
!!!SampleActualRank: 89
!!!SampleID#: 0884
!!!SampleTargetRank: 89
!!!MBID: 56d2735d-abc7-4070-9c3f-bc27593d922d
